resources/icons/16px/spell-check.svg

<svg xmlns="http://www.w3.org/2000/svg" viewBox="0 0 16 16">
  <path d="m6.89.56 4 8c.06.13.11.28.11.44 0 .55-.45 1-1 1-.39 0-.72-.23-.89-.55H9.1L8.38 8H3.62L2.9 9.44h-.01c-.17.33-.5.56-.89.56-.55 0-1-.45-1-1 0-.16.05-.31.12-.44L3.1 4.58 4 2.76 5.11.56C5.28.23 5.61 0 6 0s.72.23.89.56M14 9c-.28 0-.53.11-.71.29L9 13.59l-2.29-2.3a1.003 1.003 0 0 0-1.42 1.42l3 3c.18.18.43.29.71.29s.53-.11.71-.29l5-5A1.003 1.003 0 0 0 14 9M6 3.24 4.62 6h2.76z"/>
</svg>

<svg width="16" height="16" viewBox="0 0 16 16" fill="none" xmlns="http://www.w3.org/2000/svg">
<path fill-rule="evenodd" clip-rule="evenodd" d="M6.89 0.56L10.89 8.56C10.95 8.69 11 8.84 11 9C11 9.55 10.55 10 10 10C9.61 10 9.28 9.77 9.11 9.45H9.1L8.38 8H3.62L2.9 9.44H2.89C2.72 9.77 2.39 10 2 10C1.45 10 1 9.55 1 9C1 8.84 1.05 8.69 1.12 8.56L3.1 4.58L4 2.76L5.11 0.56C5.28 0.23 5.61 0 6 0C6.39 0 6.72 0.23 6.89 0.56ZM14 9C13.72 9 13.47 9.11 13.29 9.29L9 13.59L6.71 11.29C6.53 11.11 6.28 11 6 11C5.45 11 5 11.45 5 12C5 12.28 5.11 12.53 5.29 12.71L8.29 15.71C8.47 15.89 8.72 16 9 16C9.28 16 9.53 15.89 9.71 15.71L14.71 10.71C14.89 10.53 15 10.28 15 10C15 9.45 14.55 9 14 9ZM6.00012 3.24023L4.62012 6.00023H7.38012L6.00012 3.24023Z" fill="#111418"/>
</svg>
